!!!!SEGMENT: pl-wn--mus-iii-67-811_wieniawski-henryk--legende-op-17.krn
!!!cenid: 18xx:3813
!!!COM: Wieniawski, Henryk
!!!COM-rismID: pe137176
!!!CDT: 1835/07/10-1880/03/31
!!!CNT:
!!!OTL: Légende op. 17
!!!PDT:
!!!AGN:
!!!SMS-siglum: PL-Wn
!!!SMS-shelfmark: Mus.III.67.811
!!!SMS-shelfwork: W
!!!SMS-variant:
!!!SMS-altvar:
!!!NIFC-rismSourceID:
!!!NIFC-rismChildID:
!!!NIFC-islandoraID:
!!!URL-pdf-islandora:
!!!URL-scan: https://polona.pl/item/legende-op-17,MzkyNzkyNTc/1 @EN{Scan on Polona} @PL{Skany w portalu Polona}
!!!ONB-nifc:
!!!AIN: 1 piano
!!!key: g
**kern	**kern	**dynam
*part1	*part1	*part1
*staff2	*staff1	*
*I"Piano.	*I"Piano.	*
*mI"Pianoforte	*mI"Pianoforte	*
*	*I'	*
*	*mI'pf	*
*Ipiano	*Ipiano	*
*ICklav	*ICklav	*
*clefF4	*clefG2	*
*k[b-e-]	*k[b-e-]	*
*g:	*g:	*
*M3/4	*M3/4	*
=1	=1	=1
*^	*	*
*xywh-#2:506,504,2323,847	*xywh-#2:506,504,2323,847	*xywh-#2:506,504,2323,847	*
!	!	!LO:TX:a:B:t=Andante.	!
!	!	!LO:MO:mod=!LO&colon;TX&colon;t=H. WIENIAWSKI. Op. 17.	!
!	!	!null	!
(16D/LL	(2GG'\	(16B-/LL	p
16E-/	.	16c/	.
16D/	.	16B-/	.
16C/JJ	.	16A/JJ	.
16D/LL	.	16B-/LL	.
16BB-/	.	16G/	.
16D/	.	16B-/	.
16F/JJ	.	16d/JJ	.
16En/LL	4GG'^\)	16c#X/LL	.
16E-X/	.	16cn/	.
16D/	.	16B-/	.
16C/JJ)	.	16A/JJ)	.
=2	=2	=2	=2
(16D/LL	(2GG'\	(16B-/LL	.
16E-/	.	16c/	.
16D/	.	16B-/	.
16C/JJ	.	16A/JJ	.
16D/LL	.	16B-/LL	.
!LO:SIC:v:s=16BB-/	!	!	!
16C/	.	16G/	.
16D/	.	16B-/	.
16F/JJ	.	16d/JJ	.
16En/LL	4GG'^\)	16c#X/LL	.
16E-X/	.	16cn/	.
16D/	.	16B-/	.
16C/JJ)	.	16A/JJ)	.
=3	=3	=3	=3
*	*	*^	*
*xywh-#2:506,504,2323,847	*xywh-#2:506,504,2323,847	*xywh-#2:506,504,2323,847	*xywh-#2:506,504,2323,847	*
!	!	!LO:TX:a:B:t=H. WIENIAWSKI. Op. 17.:mod=	!	!LO:HP:a
(16D/LL	4GG\	2d/	(16B-\LL	<
16BB-/	.	.	16G\	.
16D/	.	.	16B-\	.
16BB-/JJ	.	.	16G\JJ	.
16D/LL	4GG\	.	16B-\LL	.
16BB-/	.	.	16G\	.
16D/	.	.	16B-\	.
16BB-/JJ	.	.	16G\JJ	.
16D/LL	4GG\	4en/	16B-\LL	.
16BB-/	.	.	16G\	.
16D/	.	.	16B-\	.
16BB-/JJ)	.	.	16G\JJ)	[[
*v	*v	*	*	*
!!LO:LB:g=original
=4	=4	=4	=4
*xywh-#2:475,1334,2343,544	*xywh-#2:475,1334,2343,544	*xywh-#2:475,1334,2343,544	*
8AA/ 8DD/	2.f#X/	8d\ 8A\	.
8r	.	8rc	.
!	!	!	!LO:DY:rj
8D/ 8DD/	.	8d\ 8A\ 8F#X\	p
8r	.	8rc	.
4r	.	4rc	.
=5	=5	=5	=5
*^	*	*	*
*xywh-#2:475,1334,2343,544	*xywh-#2:475,1334,2343,544	*xywh-#2:475,1334,2343,544	*xywh-#2:475,1334,2343,544	*
(16D/LL	(2GG\	2.g/	(16Bn\LL	.
16E-/	.	.	16c\	.
16D/	.	.	16B\	.
16C/JJ	.	.	16A\JJ	.
16D/LL	.	.	16B\LL	.
16BBn/	.	.	16G\	.
16D/	.	.	16B\	.
16F/JJ	.	.	16d\JJ	.
16E-/LL	4C\)	.	16c\LL	.
16F/	.	.	16d\	.
16G/	.	.	16e-\	.
16E-/JJ)	.	.	16c\JJ)	.
=6	=6	=6	=6	=6
(16F#X/LL	(2D\	[2d/	(16A\LL	.
16G/	.	.	16B-X\	.
16F#/	.	.	16A\	.
16En/JJ	.	.	16G\JJ	.
16F#/LL	.	.	16A\LL	.
16G/	.	.	16B-\	.
16A/	.	.	16c\	.
16F#/JJ	.	.	16A\JJ	.
16G/LL	4GG\)	8d/L]	16B-\LL	.
16A/	.	.	16c\	.
16B-/	.	8d/J	16d\	.
16G/JJ)	.	.	16B-\JJ)	.
*v	*v	*	*	*
=7	=7	=7	=7
(2C/ 2CC/	(2e-/	(16G\LL	>
.	.	16A\	.
.	.	16G\	.
.	.	16A\JJ	.
.	.	16G\LL	.
.	.	16A\	.
.	.	16G\	.
.	.	16A\JJ	.
4AA/ 4DD/)	4d/)	16F#X\LL	.
.	.	16A\	.
.	.	16F#\	.
.	.	16A\JJ)	]
!!LO:LB:g=original
=8	=8	=8	=8
*xywh-#2:469,1894,2349,581	*xywh-#2:469,1894,2349,581	*xywh-#2:469,1894,2349,581	*
8GG/ 8GGG/	2g:/	8d\: 8B-\: 8G:\	.
8r	.	8rc	.
8D/: 8BB-/: 8GG:/	.	8d\: 8B-\: 8G\:	.
8r	.	8rc	.
4r	(8.d/L	4ryy	p
.	16dd/Jk)	.	.
*	*v	*v	*
=9	=9	=9
4r	(2dd\	.
*clefG2	*	*
(4b-/ 4g/	.	.
4g/ 4e-/)	4cc#X\)	.
=10	=10	=10
*^	*	*
*xywh-#2:469,1894,2349,581	*xywh-#2:469,1894,2349,581	*xywh-#2:469,1894,2349,581	*
2.g/	4.d\	4.dd\ 4.b-\	.
.	(8c\L	(8ee-/L 8e-/	.
.	8B-\	8dd/ 8d/	.
*clefF4	*	*	*
.	8G\J 8E-\)	8g/J 8c/)	.
=11	=11	=11	=11
*	*	*^	*
*xywh-#2:469,1894,2349,581	*xywh-#2:469,1894,2349,581	*xywh-#2:469,1894,2349,581	*xywh-#2:469,1894,2349,581	*
(8.D\L	4rEEyy	(2b-/ 2g/	(4B-\	.
16G\Jk)	.	.	.	.
[2D/	4rGG	.	4d\	.
.	4DD\	4a/ 4f#X/)	4c\)	.
=12	=12	=12	=12	=12
16D/LL]	[2GG\	(2g/	16B-\LL	.
16E-/	.	.	16c\	.
16D/	.	.	16B-\	.
16C/JJ	.	.	16A\JJ	.
16D/LL	.	.	16B-\LL	.
16BB-/	.	.	16G\	.
16D/	.	.	16B-\	.
16G/JJ	.	.	16d\JJ	.
8D/	8GG\]	8.d/L)	8B-\	.
8r	8r	.	8re	.
.	.	16dd/Jk	.	.
*v	*v	*	*	*
!!LO:LB:g=original
=13	=13	=13	=13
*xywh-#2:469,2492,2374,573	*xywh-#2:469,2492,2374,573	*xywh-#2:469,2492,2374,573	*
4r	(2dd/	4rg	.
(4d\ 4B-\ 4G\	.	(4b-\	.
4B-\ 4G-X\)	4cc#X/)	4en\)	.
*	*v	*v	*
=14	=14	=14
*^	*	*
*xywh-#2:469,2492,2374,573	*xywh-#2:469,2492,2374,573	*xywh-#2:469,2492,2374,573	*
4.B-/	2.F\	4.dd/ 4.f/ 4.d/	.
(8e-/L	.	(8gg/L 8g/	.
8d/	.	8ff/ 8f/	.
8Gn/J)	.	8b-/J 8e-X/)	.
=15	=15	=15	=15
2B-/	(8.C\L	(>2dd/ 2b-/ 2en/	.
.	16G\Jk)	.	.
.	4C\	.	.
[4F/	4FF\	4cc/ 4a/ 4f/ 4e-X/)	.
=16	=16	=16	=16
*	*	*^	*
*xywh-#2:469,2492,2374,573	*xywh-#2:469,2492,2374,573	*xywh-#2:469,2492,2374,573	*xywh-#2:469,2492,2374,573	*
16F/LL]	[2BB-\	([2b-/	16d\LL	.
16G/	.	.	16e-\	.
16F/	.	.	16d\	.
16E-/JJ	.	.	16c\JJ	.
16F/LL	.	.	16d\LL	.
16D/	.	.	16B-\	.
16F/	.	.	16d\	.
16B-/JJ	.	.	16f\JJ	.
8F/	8BB-\]	8b-/L]	8d\	.
8rF	8rF	16cc/L	8re	.
.	.	16dd/JJ)	.	.
*v	*v	*	*	*
=17	=17	=17	=17
8r	(4ee-'/	8r	.
8A\ 8F\	.	8e-\	.
8r	4ee-'/	8r	.
8B-\L 8G\	.	8e-\L	.
8c\ 8A\	4ee-'/)	8e-\	.
8A\J 8F\	.	8e-\J	.
*	*v	*v	*
!!LO:LB:g=original
=18	=18	=18
*xywh-#2:465,3027,2357,550	*xywh-#2:465,3027,2357,550	*
8r	(16ee-\LL	.
.	16dd\)	.
.	(8qee-/	.
8d\: 8B-\: 8F\: 8BB-:\	(16dd\)	.
.	16cc#X\JJ)	.
8r	4.dd\	.
8d\L 8B-\ 8F'\	.	.
8B-\ 8F\ 8D'\	.	.
8F\J 8D\ 8BB-'\	(16ee-\LL	.
.	16ff\JJ)	.
=19	=19	=19
8r	(4gg\ 4g'\	.
8A\ 8E-\ 8C'\	.	.
8r	4gg\ 4g'\	.
8c\L 8A\ 8E-'\	.	.
8A\ 8E-\ 8C'\	4gg\ 4g'\)	.
8c\J 8A\ 8E-'\	.	.
=20	=20	=20
*^	*^	*
*xywh-#2:465,3027,2357,550	*xywh-#2:465,3027,2357,550	*xywh-#2:465,3027,2357,550	*xywh-#2:465,3027,2357,550	*
2Bn\ 2G#X\ [2D\	2ryy	(16gg\LL	4rcyy	.
.	.	16ff\)	.	.
.	.	(8qgg/	.	.
.	.	(16ff\)	.	.
.	.	16een\JJ)	.	.
.	.	([2ff/	4r	.
!	!	!LO:TX:b:i:t=espress.	!	!
(16F/LL	4D\]	.	4bn\ 4g#X\	.
16Gn/	.	.	.	.
16F/	.	.	.	.
16G/JJ)	.	.	.	.
=21	=21	=21	=21	=21
2F/	(2E-\	16ff/LL]	2cc\ 2a\	.
.	.	16ggn/	.	.
.	.	16ff/	.	.
.	.	16gg/JJ)	.	.
.	.	([2ff/	.	.
(16F/LL	4D\)	.	4bn\ 4g#X\	.
16G/	.	.	.	.
16F/	.	.	.	.
16G/JJ)	.	.	.	.
!!LO:PB:g=original
=22	=22	=22	=22	=22
*xywh-#3:429,465,2349,668	*xywh-#3:429,465,2349,668	*xywh-#3:429,465,2349,668	*xywh-#3:429,465,2349,668	*
2F/	2C\	16ff/LL]	(2ee-\ 2a\	.
.	.	16ggn/	.	.
.	.	16ff/	.	.
.	.	16gg/JJ)	.	.
.	.	([2ff/	.	.
(16F/LL	4BB-\	.	4dd\ 4b-X\)	.
16G/	.	.	.	.
16F/	.	.	.	.
16G/JJ)	.	.	.	.
=23	=23	=23	=23	=23
[2F/	2D\	16ff/LL]	2b-\	.
.	.	16gg/	.	.
.	.	16ff/	.	.
.	.	16gg/JJ)	.	.
.	.	2ff/	.	.
(16F/LL]	4D-X\	.	4cc-X\	.
16G-X/	.	.	.	.
16F/	.	.	.	.
16A-X/JJ)	.	.	.	.
*v	*v	*	*	*
*	*v	*v	*
=24	=24	=24
!	!LO:TUP:a	!
4G-X/ 4GG-X/	(12gg-X\L 12b-\	<
.	12aa-X\	.
.	12bb-\J)	.
*clefG2	*	*
!	!LO:TX:b:i:t=rit.	!
(8g-X/L	4bb-\ 4b-\	.
8f/J	.	.
!	!LO:TUP:a	!
4en/)	(12b-\L	.
.	12cc\	.
.	12cc#X\J)	.
*clefF4	*	*
=25	=25	=25
*^	*	*
*xywh-#3:429,465,2349,668	*xywh-#3:429,465,2349,668	*xywh-#3:429,465,2349,668	*
*ped	*	*	*
*Xbrackettup	*	*	*
!LO:TUP:r=8	!	!	!
(24FF/LL	4FF\	2dd/ 2b-/ 2d/	<
24BB-/	.	.	.
24D/	.	.	.
24F/	.	.	.
24BB-/	.	.	.
24D/JJ)	.	.	.
*Xtuplet	*	*	*
(24FF/LL	4FF\	.	.
24BB-/	.	.	.
24D/	.	.	.
24F/	.	.	.
!LO:MO:mod=*null:null	!	!	!
*Xped	*	*	*
24BB-/	.	.	.
!LO:MO:null:mod=*Xped	!	!	!
*	*	*	*
24D/JJ)	.	.	.
*ped	*	*	*
(24FF/LL	4FF\	4een/ 4cc#X/ 4en/	[
24BB-/	.	.	.
24C#X/	.	.	.
24G/	.	.	.
24BB-/	.	.	.
*Xped	*	*	*
24C#/JJ)	.	.	.
!!LO:LB:g=original
=26	=26	=26	=26
!LO:MO:mod=!null:null	!	!	!
*xywh-#3:418,1145,2374,568	*xywh-#3:418,1145,2374,568	*xywh-#3:418,1145,2374,568	*
!LO:N:vis=2	!	!	!LO:DY:rj
(24FF/LL	2FF\	4.ff\ 4.dd\ 4.f\	f
24BB-/	.	.	.
24D/	.	.	.
24F/	.	.	.
24BB-/	.	.	.
24D/JJ)	.	.	.
(24BB-/LL	.	.	.
24D/	.	.	.
24F/	.	.	.
24BB-/	.	8gg\L 8ee-X\ 8g\	.
24E-/	.	.	.
24G/JJ)	.	.	.
(24Cn/LL	4FF\	8aa\ 8ff\ 8ee-\ 8a\	.
24E-/	.	.	.
24F/	.	.	.
24BB-/	.	8bb-\J 8gg-X\ 8ee-\ 8b-\	.
24E-/	.	.	.
24G-X/JJ)	.	.	.
*v	*v	*	*
=27	=27	=27
!	!	!LO:DY:rj
*ped	*	*
(24C\LL	2.ggn\ 2.een\ 2.dd\ 2.gn\	mp
24B-\	.	.
24C\	.	.
24B-\	.	.
24C\	.	.
[24B-\JJ	.	.
8.B-\] 8.C\)	.	.
16FF/ 16FFF/	.	.
8FF/ 8FFF/	.	.
*Xped	*	*
8r	.	.
=28	=28	=28
*ped	*	*
(24F\LL	2.aa\ 2.ff\ 2.ee-X\ 2.a\	.
24e-\	.	.
24F\	.	.
24e-\	.	.
24F\	.	.
[24e-\JJ	.	.
8.e-\] 8.F\)	.	.
16FF/ 16FFF/	.	.
8FF/ 8FFF/	.	.
*Xped	*	*
8r	.	.
!!LO:LB:g=original
=29	=29	=29
*ped	*	*
*xywh-#3:421,1729,2357,554	*xywh-#3:421,1729,2357,554	*
(24G-X\LL	[2bb-\ [2gg-X\ [2ee-\ [2b-\	p
24e-\	.	.
24G-\	.	.
24e-\	.	.
24G-\	.	.
[24e-\JJ	.	.
8e-\] 8G-\)	.	.
8BB-/ 8BBB-/	.	.
8E-/ 8EE-/	8.bb-\]L 8.gg-\] 8.ee-\] 8.b-\]	.
*Xped	*	*
8r	.	.
.	16gg-X\Jk 16ee-\ 16g-X\	.
=30	=30	=30
*ped	*	*
(24G-X\LL	2.ccc\ 2.gg-X\ 2.ee-\ 2.cc\	.
24e-\	.	.
24G-\	.	.
24e-\	.	.
24G-\	.	.
[24e-\JJ	.	.
8e-\] 8G-\)	.	.
8E-/ 8EE-/	.	.
8G-/ 8GG-X/	.	.
*Xped	*	*
8r	.	.
=31	=31	=31
*ped	*	*
(24An\LL 24F#X\ 24D\	[2ddd\ [2ff#X\ [2dd\	>
24d\	.	.
24A\ 24F#\	.	.
24d\	.	.
24A\ 24F#\	.	]
[24d\JJ	.	.
8d\] 8A\ 8F#\)	.	.
8AA/ 8AAA/	.	.
8D/ 8DD/	8.ddd\]L 8.ff#\] 8.dd\]	.
8r	.	.
.	16dd\Jk 16a\ 16f#X\	.
=32	=32	=32
(24A\LL 24F#X\ 24D\	(>2.dd/ 2.a/ 2.f#X/	.
24d\	.	.
24A\ 24F#\ 24D\	.	.
24d\	.	.
24A\ 24F#\ 24D\	.	.
[24d\JJ	.	.
8d\] 8A\ 8F#\ 8D\)	.	.
8D/ 8DD/	.	.
8d\ 8D\	.	.
*Xped	*	*
8r	.	.
!!LO:LB:g=original
=33	=33	=33
*^	*^	*
*xywh-#3:415,2337,2377,597	*xywh-#3:415,2337,2377,597	*xywh-#3:415,2337,2377,597	*xywh-#3:415,2337,2377,597	*
!	!	!	!	!LO:DY:rj
(16D/LL	2GG\	4g/)	(16B-\LL	p
16E-/	.	.	16c\	.
16D/	.	.	16B-\	.
16C/JJ	.	.	16A\JJ	.
16D/LL	.	4r	16B-\LL	.
16BB-/	.	.	16G\	.
16D/	.	.	16B-\	.
16Fn/JJ	.	.	16d\JJ	.
16En/LL	4GG^\	4r	16c#X\LL	.
16E-X/	.	.	16cn\	.
16D/	.	.	16B-\	.
16C/JJ)	.	.	16A\JJ)	.
*	*	*v	*v	*
=34	=34	=34	=34
(16D/LL	2GG\	(16B-/LL	.
16E-/	.	16c/	.
16D/	.	16B-/	.
16C/JJ	.	16A/JJ	.
16D/LL	.	16B-/LL	.
16BB-/	.	16G/	.
16D/	.	16B-/	.
16F/JJ	.	16d/JJ	.
16En/LL	4GG^\	16c#X/LL	.
16E-X/	.	16cn/	.
16D/	.	16B-/	.
16C/JJ)	.	16A/JJ)	.
=35	=35	=35	=35
*	*	*^	*
*xywh-#3:415,2337,2377,597	*xywh-#3:415,2337,2377,597	*xywh-#3:415,2337,2377,597	*xywh-#3:415,2337,2377,597	*
!	!	!	!	!LO:HP:a
(16D/LL	4GG\	2d/	(16B-\LL	<
16BB-/	.	.	16G\	.
16D/	.	.	16B-\	.
16BB-/JJ	.	.	16G\JJ	.
16D/LL	4GG\	.	16B-\LL	.
16BB-/	.	.	16G\	.
16D/	.	.	16B-\	.
16BB-/JJ	.	.	16G\JJ	.
16D/LL	4GG\	4en/	16B-\LL	.
16BB-/	.	.	16G\	.
16D/	.	.	16B-\	.
16BB-/JJ)	.	.	16G\JJ)	[[
*v	*v	*	*	*
=36	=36	=36	=36
8AA/ 8DD/	2.f#X/	8d\ 8A\	.
8r	.	8rc	.
8D/ 8DD/	.	8d\ 8A\ 8F#X\	p
8r	.	8rc	.
4r	.	4rc	.
!!LO:LB:g=original
=37	=37	=37	=37
*^	*	*	*
*xywh-#3:415,2972,2377,605	*xywh-#3:415,2972,2377,605	*xywh-#3:415,2972,2377,605	*xywh-#3:415,2972,2377,605	*
(16D/LL	(2GG\	2.g/	(16Bn\LL	.
16E-/	.	.	16c\	.
16D/	.	.	16B\	.
16C/JJ	.	.	16A\JJ	.
16D/LL	.	.	16B\LL	.
16BBn/	.	.	16G\	.
16D/	.	.	16B\	.
16F/JJ	.	.	16d\JJ	.
16E-/LL	4C\)	.	16c\LL	.
16F/	.	.	16d\	.
16G/	.	.	16e-\	.
16E-/JJ)	.	.	16c\JJ)	.
=38	=38	=38	=38	=38
16F#X/LL	(2D\	[2d/	16A\LL	.
16G/	.	.	16B-X\	.
16F#/	.	.	16A\	.
16En/JJ	.	.	16G\JJ	.
16F#/LL	.	.	16A\LL	.
16G/	.	.	16B-\	.
16A/	.	.	16c\	.
16F#/JJ	.	.	16A\JJ	.
4D/	4GG\)	8d/L]	16B-\LL	.
.	.	.	16c\ 16A\	.
.	.	8d/J	16B-\	.
.	.	.	16B-\JJ 16G\	.
*v	*v	*	*	*
=39	=39	=39	=39
(2C/ 2CC/	(2e-/	16G\LL	.
.	.	16A\	.
.	.	16G\	.
.	.	16A\JJ	.
.	.	16G\LL	.
.	.	16A\	.
.	.	16G\	.
.	.	16A\JJ	.
4AA/ 4DD/)	4d/)	16F#X\LL	.
.	.	16A\	.
.	.	16F#\	.
.	.	16A\JJ	.
*	*v	*v	*
=40	=40	=40
8GG/ 8GGG/	8d/ 8B-/ 8G/	.
8r	8r	.
8D/:: 8GG::/	8d/:: 8B-/:: 8G::/	.
8r	8r	.
4r	(8.d/L	.
.	16dd/Jk)	.
!!LO:PB:g=original
=41	=41	=41
*xywh-#4:476,510,2363,654	*xywh-#4:476,510,2363,654	*
4r	(2dd\	.
*clefG2	*	*
(4b-/ 4g/	.	.
4g/ 4e-/)	4cc#X\)	.
=42	=42	=42
*^	*	*
*xywh-#4:476,510,2363,654	*xywh-#4:476,510,2363,654	*xywh-#4:476,510,2363,654	*
2g/	4.d\	4.dd\ 4.b-\	.
.	(8c\L	(8ee-/L 8e-/	.
4raayy	8B-\	8dd/ 8d/	.
*clefF4	*	*	*
.	8G\J 8E-\)	8g/J 8c/)	.
=43	=43	=43	=43
*	*	*^	*
*xywh-#4:476,510,2363,654	*xywh-#4:476,510,2363,654	*xywh-#4:476,510,2363,654	*xywh-#4:476,510,2363,654	*
(8.D\L	4rEEyy	(2b-/ 2g/	(4B-\	.
16G\Jk)	.	.	.	.
[2D/	4r	.	4d\	.
.	4DD\	4a/ 4f#X/)	4c\)	.
=44	=44	=44	=44	=44
16D/LL]	2GG\	(2g/	16B-\LL	.
16E-/	.	.	16c\	.
16D/	.	.	16B-\	.
16C/JJ	.	.	16A\JJ	.
16D/LL	.	.	16B-\LL	.
16BB-/	.	.	16G\	.
16D/	.	.	16B-\	.
16G/JJ	.	.	16d\JJ	.
8G/	4r	8.d/L	8B-\	.
8r	.	.	8rg	.
.	.	16dd/Jk)	.	.
=45	=45	=45	=45	=45
4r	2.ryy	(2dd/	4rg	.
(4d\ 4B-\ 4G\	.	.	(4b-\	.
4B-\ 4G-X\)	.	4cc#X/)	4en\)	.
=46	=46	=46	=46	=46
4.d/ 4.B-/	2.F\	(4.dd/	4.f\	<
(8e-/L	.	8gg/L	8g\L	.
8d/	.	8ff/	8f\	.
8Gn/J)	.	8b-/J)	8e-X\J	[
!!LO:LB:g=original
=47	=47	=47	=47	=47
*xywh-#4:493,1176,2343,620	*xywh-#4:493,1176,2343,620	*xywh-#4:493,1176,2343,620	*xywh-#4:493,1176,2343,620	*
2B-/	(8.C\L	(2dd/ 2b-/	2en\	>
.	16G\Jk)	.	.	.
.	4C\	.	.	.
[4F/	4FF\	4cc/ 4a/ 4f/)	4e-X\	]
=48	=48	=48	=48	=48
16F/LL]	2BB-\	([2b-/	16d\LL	.
16G/	.	.	16e-\	.
16F/	.	.	16d\	.
16E-/JJ	.	.	16c\JJ	.
16F/LL	.	.	16d\LL	.
16D/	.	.	16B-\	.
16F/	.	.	16d\	.
16B-/JJ	.	.	16f\JJ	.
8F/	4r	8b-/L]	8d\	.
8rF	.	16cc/L	8rg	.
.	.	16dd/JJ)	.	.
*v	*v	*	*	*
=49	=49	=49	=49
8r	(4ee-'/	8r	.
8A\ 8F\	.	8e-\	.
8r	4ee-'/	8r	.
8B-\L 8G'\	.	8e-'\L	.
8c\ 8A'\	4ee-'/)	8e-'\	.
8A\J 8F'\	.	8e-'\J	.
*	*v	*v	*
=50	=50	=50
8r	(16ee-\LL	.
.	16dd\)	.
.	(8qee-/	.
8B-\ 8F\ 8BB-\	(16dd\)	.
.	16cc#X\JJ)	.
8r	(4.dd\	.
8d\L 8B-\ 8F'\	.	.
8B-\ 8F\ 8D'\	.	.
8F\J 8D\ 8BB-'\	16een\LL	.
.	16ff\JJ)	.
=51	=51	=51
*	*^	*
*xywh-#4:493,1176,2343,620	*xywh-#4:493,1176,2343,620	*xywh-#4:493,1176,2343,620	*
8r	(4gg'/	8r	.
8c#X\: 8En\: 8AA'\:	.	8g\	.
8r	4gg'/	8r	.
8cn\:L 8E\: 8GG':\	.	8g\L	.
8Bn\ 8E\ 8BBn'\	4gg'/)	8g\	.
8B-X\J 8E\ 8C'\	.	8g\J	.
!!LO:LB:g=original
=52	=52	=52	=52
*xywh-#4:473,1791,2357,578	*xywh-#4:473,1791,2357,578	*xywh-#4:473,1791,2357,578	*
.	(8qg/	.	.
8A\ 8En\ 8C#X\	(16gg\LL)	4ryy	.
.	16ff#X\)	.	.
.	(8qgg/	.	.
8r	(16ff#\)	.	.
.	16een\JJ)	.	.
8r	([2aa/	8r	.
*clefG2	*	*	*
8cc#X/L 8a/ 8g'/	.	8ee'\L	.
8ccn/ 8a/ 8f#X'/	.	8dd#X'\	.
8cc/J 8a/ 8d#X'/	.	8ff#'\J	.
=53	=53	=53	=53
8cc#X/ 8a/ 8g/ 8en/	16aa/LL]	8een\	.
.	16gg/)	.	.
*	*Xbrackettup	*	*
8r	24gg/	8r	.
.	24ff#X/	.	.
.	24ee/JJ	.	.
.	(<8qee/	.	.
8r	([2aa/)	8r	.
*clefF4	*	*	*
8e\L 8A\ 8G'\	.	8cc#X'\L	.
8d#X\ 8A\ 8F#X'\	.	8ccn'\	.
8f#X\J 8A\ 8D#X'\	.	8cc'\J	.
=54	=54	=54	=54
8en\ 8A\ 8En\	16aa/LL]	8cc#X\	.
.	16gg/)	.	.
8r	16gg/	8r	.
.	16aa/JJ	.	.
!	!LO:TX:b:i:t=rit.	!	!
8r	[2bb-/	8r	.
8B-\L 8G\ 8E-X'\	.	8cc#'\L	<
8B-\ 8G\ 8E-'\	.	8cc#'\	.
8B-\J 8G\ 8D'\	.	8dd'\J	[[
*	*v	*v	*
=55	=55	=55
2.B-\ 2.G\ 2.Cn\	8bb-\]L 8ee-\	.
.	8bb-\J	>
!	!LO:TUP:a	!
.	(12aa\L	.
.	12gg\	.
.	12dd\J)	.
!	!LO:TUP:a	!
.	(12ffn\L	.
.	12ee-X\	.
.	12dd\J)	]
!!LO:LB:g=original
=56	=56	=56
*^	*	*
*xywh-#4:476,2431,2357,583	*xywh-#4:476,2431,2357,583	*xywh-#4:476,2431,2357,583	*
*tuplet	*	*	*
!LO:TUP:r=8	!	!	!LO:DY:rj
(24G/LL	(2D\	2ddd\ 2dd\	p
24B-/	.	.	.
24G/	.	.	.
24B-/	.	.	.
24G/	.	.	.
24B-/JJ	.	.	.
*Xtuplet	*	*	*
24G/LL	.	.	.
24B-/	.	.	.
24G/	.	.	.
24B-/	.	.	.
24G/	.	.	.
24B-/JJ	.	.	.
24G/LL	4E-\)	4ccc#X\ 4cc#X\	.
24B-/	.	.	.
24G/	.	.	.
24B-/	.	.	.
24G/	.	.	.
24B-/JJ)	.	.	.
=57	=57	=57	=57
24G/LL	2D\	4.ddd\ 4.dd\	.
24B-/	.	.	.
24G/	.	.	.
24B-/	.	.	.
24G/	.	.	.
(24B-/JJ	.	.	.
2B-/ 2G/)	.	.	.
.	.	8eee-\L 8ee-\	.
.	4rA	8ddd\ 8dd\	.
.	.	8gg\J 8g\	.
*v	*v	*	*
=58	=58	=58
*ped	*	*
8B-\: 8G\: 8E-\: 8C:\	2.bb-\ 2.b-\	.
8r	.	.
*clefG2	*	*
8.g/ 8.e-/ 8.c/	.	.
*clefF4	*	*
16C/ 16CC/	.	.
8C/ 8CC/	.	.
*Xped	*	*
8r	.	.
=59	=59	=59
*ped	*	*
4c\ 4F#X\ 4D\	2.aat\	.
8.f#X\ 8.d\ 8.c\	.	.
16D/ 16DD/	.	.
8D/ 8DD/	.	.
*Xped	*	*
8r	.	.
.	16qqgg/LL	.
.	16qqbb-/	.
.	16qqaa/JJ	.
!!LO:LB:g=original
=60	=60	=60
*	*^	*
*xywh-#4:473,3022,2335,597	*xywh-#4:473,3022,2335,597	*xywh-#4:473,3022,2335,597	*
*ped	*	*	*
(28E-\LL	[>2gg/	2rcyy	.
28G\	.	.	.
28E-\	.	.	.
28G\	.	.	.
28E-\	.	.	.
28G\	.	.	.
[28E-\JJ	.	.	.
8G\ 8E-\])	.	.	.
8C/ 8CC/	.	.	.
8.G\L 8.GG\	4gg/]	8.gg\L	.
*Xped	*	*	*
16e-\Jk 16c\	.	16ee-\Jk 16cc\	.
*	*v	*v	*
=61	=61	=61
*ped	*	*
(24E-\LL	2.gg\ 2.ee-\ 2.cc\ 2.g\	.
24G\	.	.
24E-\	.	.
24G\	.	.
24E-\	.	.
[24G\JJ	.	.
8G\] 8E-\)	.	.
8C/ 8CC/	.	.
8G/ 8GG/	.	.
*tuplet	*	*
!LO:TUP:a	!	!
(24E-\LL	.	.
24G\	.	.
*Xped	*	*
24c\JJ)	.	.
=62	=62	=62
*	*^	*
*xywh-#4:473,3022,2335,597	*xywh-#4:473,3022,2335,597	*xywh-#4:473,3022,2335,597	*
*ped	*	*	*
*Xtuplet	*	*	*
(24E-\LL	[2aa\ [2ee-\ [2cc\ [2a\	2rcyy	.
24G\	.	.	.
24E-\	.	.	.
24G\	.	.	.
24E-\	.	.	.
[24G\JJ	.	.	.
8G\] 8E-\)	.	.	.
8GG/ 8GGG/	.	.	.
8.G\L 8.GG\	4aa/]	8.ee-\L] 8.cc\] 8.a\]	.
*Xped	*	*	*
16e-\Jk 16c\	.	16cc\Jk	.
*	*v	*v	*
=63	=63	=63
*ped	*	*
(24E-\LL	[2aa\ [2cc\ [2a^\	.
24G\	.	.
24E-\	.	.
24G\	.	.
24E-\	.	.
[24G\JJ	.	.
8G\] 8E-\ 8C\)	.	.
8GG/ 8GGG/	.	.
4G/ 4GG/	8aa\] 8cc\] 8a\]	.
*Xped	*	*
.	8e-/ 8c/	.
!!LO:PB:g=original
=64	=64	=64
*	*^	*
*xywh-#5:337,518,2362,552	*xywh-#5:337,518,2362,552	*xywh-#5:337,518,2362,552	*
2.D/ 2.GG/	2.d/	(<16B-\LL	.
.	.	16c\	.
.	.	16B-\	.
.	.	16A\JJ	.
.	.	16B-\LL	.
.	.	16G\	.
.	.	16B-\	.
.	.	16d\JJ	.
.	.	8qg/	.
.	.	16c#X\LL	.
.	.	16cn\	.
.	.	16B-\	.
.	.	16A\JJ)	.
=65	=65	=65	=65
2.D/ 2.GG/	2.d/	(<16B-\LL	.
.	.	16c\	.
.	.	16B-\	.
.	.	16A\JJ	.
.	.	16B-\LL	.
.	.	16G\	.
.	.	16B-\	.
.	.	16d\JJ	.
.	.	8qg/	.
.	.	16c#X\LL	.
.	.	16cn\	.
.	.	16B-\	.
.	.	16A\JJ)	.
=66	=66	=66	=66
4D/ 4GG/	2.d/	(16B-\LL	.
.	.	16G\	.
.	.	16c\	.
.	.	16A\JJ	.
4D/ 4GG/	.	16B-\LL	.
.	.	16G\	.
.	.	16c\	.
.	.	16A\JJ	.
4D/ 4GG/	.	16B-\LL	.
.	.	16G\	.
.	.	16c\	.
.	.	16A\JJ)	.
=67	=67	=67	=67
!	!LO:TX:b:i:t=rit.	!	!
4D/ 4GG/	2.d/	(16B-\LL	.
.	.	16c\	.
.	.	16B-\	.
.	.	16G\JJ	.
4D/ 4GG/ 4DD/	.	16B-\LL	.
.	.	16c\	.
.	.	16B-\	.
.	.	16G\JJ	.
4BB-/ 4GG/ 4BBB-/	.	16B-\LL	.
.	.	16c\	.
.	.	16B-\	.
.	.	16G\JJ)	.
*	*v	*v	*
!!LO:LB:g=original
=68||	=68||	=68||
*xywh-#5:342,1107,2376,646	*xywh-#5:342,1107,2376,646	*
*k[f#]	*k[f#]	*
*G:	*G:	*
*M4/4	*M4/4	*
*met(c)	*met(c)	*
*ped	*	*
!	!LO:TX:a:B:t=Allegro moderato.	!
8GG/ 8GGG^/	4g/: 4d/: 4Bn:/	f
8B\ 8G\ 8D\	.	.
4B\ 4G\ 4D\	4r	.
4r	2r	.
4B\ 4G\ 4D\	.	.
=69	=69	=69
8GG/ 8GGG^/	2r	.
8B\ 8G\ 8D\	.	.
4B\ 4G\ 4D\	.	.
!	!LO:TX:a:i:t=risoluto	!
4r	2dd\ 2b\	.
*Xped	*	*
4B\ 4G\ 4D\	.	.
=70	=70	=70
*ped	*	*
8GG/ 8GGG^/	(2.ee\ 2.cc\	.
8c\ 8A\ 8F#\ 8D\	.	.
4c\ 4A\ 4F#\ 4D\	.	.
4r	.	.
4c\ 4A\ 4F#\ 4D\	4a/ 4f#/)	.
=71	=71	=71
8GG/ 8GGG^/	(2a/ 2f#/	.
8c\ 8A\ 8F#\ 8D\	.	.
4c\ 4A\ 4F#\ 4D\	.	.
4r	2ee\ 2cc\)	.
*Xped	*	*
4c\ 4A\ 4F#\ 4D\	.	.
=72	=72	=72
*ped	*	*
8GG/ 8GGG^/	2dd\ 2b\	.
8B\ 8G\ 8D\	.	.
4B\ 4G\ 4D\	.	.
4r	4ee/ 4e/	.
*Xped	*	*
4B\ 4G\ 4D\	4ff#\ 4f#\	.
=73	=73	=73
*ped	*	*
8EE/ 8EEE^/	(4gg\ 4g\	.
8B\ 8G\ 8E\	.	.
4B\ 4G\ 4E\	4ff#\ 4f#\)	.
4r	4ee/ 4e/	.
*Xped	*	*
4B\ 4G\ 4E\	4b/ 4g/	.
!!LO:LB:g=original
=74	=74	=74
*	*^	*
*xywh-#5:340,1752,2370,614	*xywh-#5:340,1752,2370,614	*xywh-#5:340,1752,2370,614	*
*ped	*	*	*
8AA/ 8AAA^/	1cc/	(4a\	.
8c\ 8A\ 8E\	.	.	.
4c\ 4A\ 4E\	.	4e\	.
4r	.	4a\	.
*Xped	*	*	*
4c\ 4A\ 4E\	.	4g\)	.
*	*v	*v	*
=75	=75	=75
*ped	*	*
8D/ 8DD/	(4cc/ 4f#/	.
8A\ 8F#\ 8D\	.	.
4A\ 4F#\ 4D\	4ee\ 4cc\)	.
4r	4dd\ 4b\	.
*Xped	*	*
4A\ 4F#\ 4D\	4cc\ 4a\	.
=76	=76	=76
*	*^	*
*xywh-#5:340,1752,2370,614	*xywh-#5:340,1752,2370,614	*xywh-#5:340,1752,2370,614	*
(4G/ 4GG^/	[1b/ [1g/	8r	.
.	.	8d\ 8B\	.
4E/ 4EE/	.	4d\ 4B\	.
4D/ 4DD/	.	4r	.
4BB/ 4BBB/)	.	4d\ 4B\	.
=77	=77	=77	=77
(4GG/ 4GGG^/	2b/] 2g/]	8d\L 8B\	.
.	.	8d\J 8B\	.
4E/ 4EE/	.	4d\ 4B\	.
4D/ 4DD/	2dd/ 2b/	4re	.
4GG/ 4GGG/)	.	4d\ 4B\	.
*	*v	*v	*
=78	=78	=78
*ped	*	*
8GG/ 8GGG^/	(2.ee\ 2.cc\	.
8c\ 8A\ 8F#\ 8D\	.	.
4c\ 4A\ 4F#\ 4D\	.	.
4r	.	.
*Xped	*	*
4c\ 4A\ 4F#\ 4D\	4a/ 4f#/)	.
=79	=79	=79
*ped	*	*
8GG/ 8GGG/	(2a/ 2f#/	.
8c\ 8A\ 8F#\ 8D\	.	.
4c\ 4A\ 4F#\ 4D\	.	.
4r	2ee\ 2cc\)	.
*Xped	*	*
4c\ 4A\ 4F#\ 4D\	.	.
!!LO:LB:g=original
=80	=80	=80
*xywh-#5:335,2384,2396,606	*xywh-#5:335,2384,2396,606	*
*ped	*	*
8GG/ 8GGG/	2dd\ 2b\	.
8B\ 8G\ 8D\	.	.
4B\ 4G\ 4D\	.	.
4r	4ee/ 4e/	.
*Xped	*	*
4B\ 4G\ 4D\	4ff#\ 4f#\	.
=81	=81	=81
*ped	*	*
8EE/ 8EEE/	4gg\ 4g\	.
8B\ 8G\ 8E\	.	.
4B\ 4G\ 4E\	4ff#\ 4f#\	.
4r	4ee/ 4e/	.
*Xped	*	*
4B\ 4G\ 4E\	4b/ 4g/	.
=82	=82	=82
*	*^	*
*xywh-#5:335,2384,2396,606	*xywh-#5:335,2384,2396,606	*xywh-#5:335,2384,2396,606	*
*ped	*	*	*
8FF#/ 8FFF#/	1dd#X/	(2.f#\	.
8d#X\ 8B\ 8F#\	.	.	.
4d#\ 4B\ 4F#\	.	.	.
4r	.	.	.
*Xped	*	*	*
4d#\ 4B\ 4F#\	.	4e#X\)	.
=83	=83	=83	=83
*ped	*	*	*
8FF#/ 8FFF#/	(2dd#X/	1en\	.
8A#X\ 8F#\ 8E\	.	.	.
4A#\ 4F#\	.	.	.
4r	2cc#X/)	.	.
*Xped	*	*	*
4A#\ 4F#\	.	.	.
*	*v	*v	*
=84	=84	=84
*ped	*	*
8BB/ 8BBB/	1b/ 1d#X/	.
8B\ 8F#\ 8D#X\	.	.
4B\ 4F#\	.	.
4r	.	.
*Xped	*	*
4B\ 4F#\ 4D#\	.	.
=85	=85	=85
*ped	*	*
8BB/ 8BBB/	2b/ 2dn/	.
8B\ 8F#\ 8Dn\	.	.
4B\ 4F#\	.	.
4r	2dd\ 2b\	.
*Xped	*	*
4d\ 4B\ 4F#\	.	.
!!LO:LB:g=original
=86	=86	=86
*xywh-#5:333,2999,2405,611	*xywh-#5:333,2999,2405,611	*
*ped	*	*
8GG/ 8GGG/	(2.ee\ 2.cc\	.
8c\ 8A\ 8F#\ 8D\	.	.
4c\ 4A\ 4F#\	.	.
4r	.	.
*Xped	*	*
4c\ 4A\ 4F#\ 4D\	4a/ 4f#/)	.
=87	=87	=87
*ped	*	*
8GG/ 8GGG/	(2a/ 2f#/	.
8c\ 8A\ 8F#\ 8D\	.	.
4c\ 4A\ 4F#\	.	.
4r	2ee\ 2cc\)	.
*Xped	*	*
4c\ 4A\ 4F#\ 4D\	.	.
=88	=88	=88
*ped	*	*
8GG/ 8GGG/	2dd\ 2b\	.
8B\ 8G\ 8D\	.	.
4B\ 4G\ 4D\	.	.
4r	4ee/ 4e/	.
*Xped	*	*
4B\ 4G\ 4D\	4ff#\ 4f#\	.
=89	=89	=89
*ped	*	*
8EE/ 8EEE/	4gg\ 4g\	.
8B\ 8G\ 8E\	.	.
4B\ 4G\ 4E\	4ff#\ 4f#\	.
4r	4ee/ 4e/	.
*Xped	*	*
4B\ 4G\ 4E\	4b/ 4g/	.
=90	=90	=90
*	*^	*
*xywh-#5:333,2999,2405,611	*xywh-#5:333,2999,2405,611	*xywh-#5:333,2999,2405,611	*
*ped	*	*	*
8AA/ 8AAA/	1cc/	(4a\	.
8c\ 8A\ 8E\	.	.	.
4c\ 4A\ 4E\	.	4e\	.
4r	.	4a\	.
*Xped	*	*	*
4c\ 4A\ 4E\	.	4g\)	.
*	*v	*v	*
=91	=91	=91
*ped	*	*
8D/ 8DD/	(4cc/ 4f#/	.
8c\ 8A\ 8F#\ 8D\	.	.
4c\ 4A\ 4F#\ 4D\	4ee\ 4cc\)	.
4r	4dd\ 4b\	.
*Xped	*	*
4c\ 4A\ 4F#\ 4D\	4cc\ 4a\	.
!!LO:PB:g=original
=92	=92	=92
*	*^	*
*xywh-#6:597,503,2361,593	*xywh-#6:597,503,2361,593	*xywh-#6:597,503,2361,593	*
(4G/ 4GG^/	[1b/ [1g/	8r	.
.	.	8d\ 8B\	.
4E/ 4EE/	.	4d\ 4B\	.
4D/ 4DD/	.	4r	.
4BB/ 4BBB/)	.	4d\ 4B\	.
=93	=93	=93	=93
(4GG/ 4GGG^/	2b/] 2g/]	8d\L 8B\	.
.	.	8d\J 8B\	.
4E/ 4EE/	.	4d\ 4B\	.
4D/ 4DD/	2dd/ 2b/	4r	.
4GG/ 4GGG/)	.	4g\ 4d\	.
*	*v	*v	*
=94	=94	=94
*ped	*	*
8C/ 8CC^/	(2.ee\ 2.cc\	.
8A\ 8F#\ 8D\	.	.
4A\ 4F#\ 4D\	.	.
4r	.	.
4A\ 4F#\ 4D\	4a/ 4f#/)	.
=95	=95	=95
8C/ 8CC^/	(2a/ 2f#/	.
8A\ 8F#\ 8D\	.	.
4A\ 4F#\ 4D\	.	.
4r	2ee\ 2cc\)	.
*Xped	*	*
4A\ 4F#\ 4D\	.	.
=96	=96	=96
*ped	*	*
8BB/ 8BBB^/	2dd\ 2b\	.
8d\ 8G\ 8D\	.	.
4d\ 4G\ 4D\	.	.
4r	4ee/ 4e/	.
*Xped	*	*
4d\ 4G\ 4D\	4ff#\ 4f#\	.
=97	=97	=97
*ped	*	*
8BB-X/ 8BBB-X^/	4gg\ 4g\	.
8d\ 8G\ 8D\	.	.
4d\ 4G\ 4D\	4ffn\ 4fn\	.
4r	4ee-X/ 4e-X/	.
*Xped	*	*
4B-X\ 4G\ 4D\	4dd/ 4d/	.
!!LO:LB:g=original
=98	=98	=98
*	*^	*
*xywh-#6:603,1121,2361,607	*xywh-#6:603,1121,2361,607	*xywh-#6:603,1121,2361,607	*
*ped	*	*	*
8FFn/ 8FFFn^/	1dd/	(2.fn\	.
8d\ 8B-X\ 8Fn\	.	.	.
4d\ 4B-\ 4F\	.	.	.
4r	.	.	.
*Xped	*	*	*
4d\ 4B-\ 4F\	.	4en\)	.
=99	=99	=99	=99
*ped	*	*	*
8FFn/ 8FFFn^/	(2dd/	1e-X\	.
8A\ 8Fn\ 8E-X\	.	.	.
4A\ 4F\ 4E-\	.	.	.
4r	2cc/)	.	.
4A\ 4F\ 4E-\	.	.	.
*Xped	*	*	*
*	*v	*v	*
=100	=100	=100
*ped	*	*
8BB-X/ 8BBB-X^/	[1b-X/ [1d/	.
8B-X\ 8Fn\ 8D\	.	.
4B-\ 4F\ 4D\	.	.
4r	.	.
4B-\ 4F\ 4D\	.	.
=101	=101	=101
8BB-X/ 8BBB-X^/	2b-/] 2d/]	.
8B-X\ 8Fn\ 8D\	.	.
4B-\ 4F\ 4D\	.	.
4r	2ffn\ 2dd\	.
*Xped	*	*
4d\ 4B-\ 4F\	.	.
=102	=102	=102
*ped	*	*
8BB-X/ 8BBB-X^/	2.gg\ 2.ee-X\	.
8e-X\ 8A\ 8Fn\	.	.
4e-\ 4A\ 4F\	.	.
4r	.	.
4e-\ 4A\ 4F\	4a/	.
=103	=103	=103
8BB-X/ 8BBB-X^/	(2a/	.
8e-X\ 8A\ 8Fn\	.	.
4e-\ 4A\ 4F\	.	.
4r	2gg\ 2ee-X\)	.
*Xped	*	*
4e-\ 4A\ 4F\	.	.
!!LO:LB:g=original
=104	=104	=104
*xywh-#6:612,1736,2330,618	*xywh-#6:612,1736,2330,618	*
*ped	*	*
8BB-X/ 8BBB-X^/	2ffn\ 2dd\	.
8d\ 8B-X\ 8Fn\	.	.
4d\ 4B-\ 4F\	.	.
4r	4gg\ 4g\	.
*Xped	*	*
4d\ 4B-\ 4F\	4aa\ 4a\	.
=105	=105	=105
*ped	*	*
8GG/ 8GGG^/	4bb-X\ 4b-X\	.
8d\ 8B-X\ 8G\	.	.
4d\ 4B-\ 4G\	4aa\ 4a\	.
4r	4gg\ 4g\	.
*Xped	*	*
4d\ 4B-\ 4G\	4dd\	.
=106	=106	=106
*	*^	*
*xywh-#6:612,1736,2330,618	*xywh-#6:612,1736,2330,618	*xywh-#6:612,1736,2330,618	*
*ped	*	*	*
8C/ 8CC^/	1ee-X/	(4cc\	.
8e-X\ 8c\ 8G\	.	.	.
4e-\ 4c\ 4G\	.	4g\	.
4r	.	4cc\	.
*Xped	*	*	*
4e-\ 4c\ 4G\	.	4b-X\)	.
*	*v	*v	*
=107	=107	=107
*ped	*	*
8FFn/ 8FFFn^/	(4ee-X\ 4a\	.
8e-X\ 8c\ 8A\ 8Fn\	.	.
4e-\ 4c\ 4A\ 4F\	4gg\ 4ee-\	.
4r	4ffn\ 4dd\	.
*Xped	*	*
4e-\ 4c\ 4A\ 4F\	4ee-\ 4cc\)	.
=108	=108	=108
*	*^	*
*xywh-#6:612,1736,2330,618	*xywh-#6:612,1736,2330,618	*xywh-#6:612,1736,2330,618	*
(4BB-X/ 4BBB-X^/	[1dd/ [1b-X/	8r	.
.	.	8fn\ 8d\	.
4G/ 4GG/	.	4f\ 4d\	.
4Fn/ 4FFn/	.	4rg	.
4D/ 4DD/)	.	4f\ 4d\	.
=109	=109	=109	=109
(4BB-X/ 4BBB-X^/	2dd/] 2b-/]	8fn\L 8d\	.
.	.	8f\J 8d\	.
4GG/ 4GGG/	.	4f\ 4d\	.
4FFn/ 4FFFn/	2ffn/ 2dd/	4rg	.
4BB-X/ 4BBB-X/)	.	4b-X\ 4f\	.
*	*v	*v	*
!!LO:LB:g=original
=110	=110	=110
*xywh-#6:595,2360,2352,621	*xywh-#6:595,2360,2352,621	*
*ped	*	*
8BB-X/ 8BBB-X^/	(2.gg\ 2.ee-X\	.
8e-X\ 8A\ 8Fn\	.	.
4e-\ 4A\ 4F\	.	.
4r	.	.
4e-\ 4A\ 4F\	4a/)	.
=111	=111	=111
8BB-X/ 8BBB-X^/	(2a/	.
8e-X\ 8A\ 8Fn\	.	.
4e-\ 4A\ 4F\	.	.
4r	2gg\ 2ee-X\)	.
*Xped	*	*
4e-\ 4A\ 4F\	.	.
=112	=112	=112
*ped	*	*
8BB-X/ 8BBB-X^/	2ffn\ 2dd\	.
8d\ 8B-X\ 8Fn\	.	.
4d\ 4B-\ 4F\	.	.
4r	4gg\ 4g\	.
*Xped	*	*
4d\ 4B-\ 4F\	4aa\ 4a\	.
=113	=113	=113
*ped	*	*
8GG/ 8GGG^/	4bb-X\ 4b-X\	.
8d\ 8B-X\ 8G\	.	.
4d\ 4B-\ 4G\	4aa\ 4a\	.
4r	4gg\ 4g\	.
*Xped	*	*
4d\ 4B-\ 4G\	4dd\	.
=114	=114	=114
*ped	*	*
8AA/ 8AAA^/	(2.ff#\ 2.dd\ 2.a\	.
8A\ 8F#X\ 8D\	.	.
4A\ 4F#\ 4D\	.	.
4r	.	.
*Xped	*	*
4A\ 4F#\ 4D\	4a/ 4f#X/)	.
=115	=115	=115
*	*^	*
*xywh-#6:595,2360,2352,621	*xywh-#6:595,2360,2352,621	*xywh-#6:595,2360,2352,621	*
*ped	*	*	*
8AA/ 8AAA^/	(2bn/	(4g\	.
8c#X\ 8A\ 8G\	.	.	.
4c#\ 4A\ 4G\	.	4e\	.
4r	2cc#X/)	4a\	.
*Xped	*	*	*
4c#\ 4A\ 4G\	.	4g\)	.
*	*v	*v	*
!!LO:LB:g=original
=116	=116	=116
*xywh-#6:604,2987,2335,578	*xywh-#6:604,2987,2335,578	*
*ped	*	*
8D/ 8DD^/	[1dd/ [1f#/	.
8d\ 8A\ 8F#\	.	.
4d\ 4A\ 4F#\	.	.
4r	.	.
4d\ 4A\ 4F#\	.	.
=117	=117	=117
8D/ 8DD^/	2dd/] 2f#/]	.
8d\ 8A\ 8F#\	.	.
4d\ 4A\ 4F#\	.	.
4r	2dd/ 2f#/	.
*Xped	*	*
4d\ 4A\ 4F#\	.	.
=118	=118	=118
*ped	*	*
8D/ 8DD^/	(2ee-X\ 2g\	.
8e-X\ 8B-X\ 8G\	.	.
4e-\ 4B-\ 4G\	.	.
4r	2gg\ 2b-X\)	.
4e-\ 4B-\ 4G\	.	.
=119	=119	=119
8D/ 8DD^/	(2ee-X\ 2g\	.
8e-X\ 8B-X\ 8G\	.	.
4e-\ 4B-\ 4G\	.	.
4r	2cc#X/ 2e-X/)	.
*Xped	*	*
4B-\ 4G\	.	.
=120	=120	=120
.	(>8qd/	.
*ped	*	*
8D/ 8DD^/	2.dd\)	.
8d\ 8A\ 8F#X\	.	.
4d\ 4A\ 4F#\	.	.
4r	.	.
4d\ 4A\ 4F#\	4ff#X\ 4dd\ 4a\	.
=121	=121	=121
*	*^	*
8D/ 8DD/	2dd/ 2a/ 2f#/	2rcyy	f
8d\ 8A\ 8F#\	.	.	.
4d\ 4A\ 4F#\	.	.	.
4r	2dd/	4r	.
*Xped	*	*	*
4d\ 4A\ 4F#\	.	4a\ 4f#\	.
*	*v	*v	*
!!LO:PB:g=original
=122	=122	=122
*xywh-#7:307,517,2381,609	*xywh-#7:307,517,2381,609	*
*ped	*	*
8D/ 8DD/	(4ee-X\ 4b-X\ 4g\	.
8e-X\ 8B-X\ 8G\	.	.
4e-\ 4B-\ 4G\	4bb-X\ 4b-\)	.
4r	4aa\ 4a^\	.
4e-\ 4B-\ 4G\	4gg\ 4g\	.
=123	=123	=123
8D/ 8DD/	4ffn\ 4b-X\ 4g^\	.
8e-X\ 8B-X\ 8G\	.	.
4e-\ 4B-\ 4G\	4ee-X\ 4g\	.
4r	(4b-/ 4g^>/	.
*Xped	*	*
4e-\ 4B-\ 4G\	4cc/ 4g/)	.
=124	=124	=124
*ped	*	*
8D/ 8DD^/	[1dd/ [1f#X/	.
8d\ 8A\ 8F#\	.	.
4d\ 4A\ 4F#\	.	.
4r	.	.
4d\ 4A\ 4F#\	.	.
=125	=125	=125
*^	*	*
*xywh-#7:307,517,2381,609	*xywh-#7:307,517,2381,609	*xywh-#7:307,517,2381,609	*
8r	2D^\	2dd/] 2f#/]	.
8d/ 8A/ 8F#/	.	.	.
4d/ 4A/ 4F#/	.	.	.
*Xped	*	*	*
4r	2C#X\	2dd#X/ 2d#X/	.
4A/ 4F#/	.	.	.
=126	=126	=126	=126
*ped	*	*	*
8r	1Cn\^	2.ee/ 2.e/	.
8d/ 8A/ 8F#/	.	.	.
4d/ 4A/ 4F#/	.	.	.
4r	.	.	.
4d/ 4A/ 4F#/	.	4a/	.
=127	=127	=127	=127
8r	1C\	(2a/	.
8d/ 8A/ 8F#/	.	.	.
4d/ 4A/ 4F#/	.	.	.
4r	.	2ee/ 2e/)	.
*Xped	*	*	*
4d/ 4A/ 4F#/	.	.	.
!!LO:LB:g=original
=128	=128	=128	=128
*	*	*^	*
*xywh-#7:329,1156,2370,581	*xywh-#7:329,1156,2370,581	*xywh-#7:329,1156,2370,581	*xywh-#7:329,1156,2370,581	*
*ped	*	*	*	*
8r	1BB\	(4d/	2d\	.
8G/ 8D/	.	.	.	.
4G/ 4D/	.	4dd/)	.	.
4r	.	4ee/ 4e/	2rcyy	.
*Xped	*	*	*	*
4G/ 4D/	.	4ff#\ 4f#\	.	.
*v	*v	*	*	*
*	*v	*v	*
=129	=129	=129
*ped	*	*
8E/ 8EE/	(4gg\ 4g\	.
8B\ 8G\ 8E\	.	.
4B\ 4G\ 4E\	4ff#\ 4f#\)	.
4r	(4ee/ 4e/	.
*Xped	*	*
4B\ 4G\ 4E\	4b/ 4g/)	.
=130	=130	=130
*	*^	*
*xywh-#7:329,1156,2370,581	*xywh-#7:329,1156,2370,581	*xywh-#7:329,1156,2370,581	*
*ped	*	*	*
8AA/ 8AAA/	1cc/	(4a\	.
8c\ 8A\ 8E\	.	.	.
4c\ 4A\ 4E\	.	4e\	.
4r	.	4a\	.
*Xped	*	*	*
4c\ 4A\ 4E\	.	4g\)	.
*	*v	*v	*
=131	=131	=131
*ped	*	*
8D/ 8DD/	(4cc/ 4f#/	.
8d\ 8A\ 8F#\	.	.
4d\ 4A\ 4F#\	4ee\ 4cc\)	.
4r	4dd\ 4b\	.
*Xped	*	*
4d\ 4A\ 4F#\	4cc\ 4a\	.
=132	=132	=132
*	*^	*
*xywh-#7:329,1156,2370,581	*xywh-#7:329,1156,2370,581	*xywh-#7:329,1156,2370,581	*
(4G/ 4GG/	[1b/ [1g/	8r	.
.	.	8d\ 8B\	.
4E/ 4EE/	.	4d\ 4B\	.
4D/ 4DD/	.	4r	.
4BB/ 4BBB/)	.	4d\ 4B\	.
=133	=133	=133	=133
(4GG/ 4GGG/	2b/] 2g/]	8d\L 8B\	.
.	.	8d\J 8B\	.
4E/ 4EE/	.	4d\ 4B\	.
4D/ 4DD/	2dd/ 2b/	4r	.
4GG/ 4GGG/)	.	4g\ 4d\	.
*	*v	*v	*
!!LO:LB:g=original
=134	=134	=134
*xywh-#7:322,1751,2367,621	*xywh-#7:322,1751,2367,621	*
.	(>8qg/	.
*ped	*	*
8C/ 8CC^/	2.ee-X\ 2.cc\)	<
8e-X\ 8c\ 8G\	.	.
4e-\ 4c\ 4G\	.	.
4r	.	.
4e-\ 4c\ 4G\	4cc/ 4g/	.
=135	=135	=135
.	(>8qg/ 8qe-X/	.
8C/ 8CC^/	(2cc\)	.
8e-X\ 8c\ 8G\	.	.
4e-\ 4c\ 4G\	.	.
4r	2ee-X\)	.
*Xped	*	*
4e-\ 4c\ 4G\	.	.
=136	=136	=136
*ped	*	*
8C#X/ 8CC#X^/	2.gg\ 2.ee-X\ 2.g\	.
8e-X\ 8B-X\ 8G\	.	.
4e-\ 4B-\ 4G\	.	.
4r	.	.
4e-\ 4B-\ 4G\	4ee-\ 4g\	.
=137	=137	=137
8C#X/ 8CC#X^/	(2ee-X\ 2g\	.
8e-X\ 8B-X\ 8G\	.	.
4e-\ 4B-\ 4G\	.	.
4r	2gg\ 2ee-\)	.
*Xped	*	*
4e-\ 4B-\ 4G\	.	.
=138	=138	=138
*ped	*	*
8D/ 8DD^/	2.bb-X\ 2.dd\ 2.b-X\	.
8d\ 8B-X\ 8G\	.	.
4d\ 4B-\ 4G\	.	.
4r	.	.
4d\ 4B-\ 4G\	4dd\ 4g\	.
=139	=139	=139
.	(>8qd/	.
8D/ 8DD^/	2dd\ 2b-X\ 2g\)	.
8d\ 8B-X\ 8G\	.	.
4d\ 4B-\ 4G\	.	.
4r	(4.bb-X\ 4.b-\	.
*Xped	*	*
4d\ 4B-\ 4G\	.	.
.	8ggg\ 8gg\)	.
!!LO:LB:g=original
=140	=140	=140
*xywh-#7:308,2389,2393,618	*xywh-#7:308,2389,2393,618	*
*ped	*	*
4E-X/ 4EE-X/	[1ggg\ [1gg\	ff
4c#X\ 4B-X\ 4G\ 4E-\	.	.
4c#\ 4B-\ 4G\ 4E-\	.	.
4c#\ 4B-\ 4G\ 4E-\	.	.
=141	=141	=141
*tuplet	*	*
!LO:TUP:a	!LO:TUP:a	!
6E-X/ 6EE-X/	6ggg\] 6gg\]	.
6c#X\ 6B-X\ 6G\ 6E-\	6ggg\ 6gg\	.
6c#\ 6B-\ 6G\ 6E-\	6ggg\ 6gg\	.
8c#\L 8B-\ 8G\ 8E-\	8ggg\L 8gg\	.
8c#\J 8B-\ 8G\ 8E-\	8ggg\J 8gg\	.
!LO:TUP:a	!LO:TUP:a	!
12c#\L 12B-\ 12G\ 12E-\	12ggg\L 12gg\	.
12c#\ 12B-\ 12G\ 12E-\	12ggg\ 12gg\	.
12c#\J 12B-\ 12G\ 12E-\	12ggg\J 12gg\	.
=142	=142	=142
*	*cue	*
.	8qgg/	.
*Xped	*	*
4c#X\ 4B-X\ 4G\ 4E-X\	(8ggg\L	.
.	8fff#X\)	.
4r	8fffn\	.
.	8eee\J	.
*	*Xtuplet	*
2r;	(66eee-X\LLL	.
.	66ddd\	.
.	66ccc#X\	.
.	66cccn\	.
.	66bb\	.
.	66bb-X\	.
.	66aa\	.
.	66gg#X\	.
.	66ggn\	.
.	66ff#X\	.
.	66ffn\	.
.	66een\	.
.	66ee-X\	.
.	66dd\	.
.	66cc#X\	.
.	66ccn\	.
.	66b\	.
.	66b-X\	.
.	66a\	.
.	66g#X\	.
.	66gn\	.
.	66f#X\	.
.	66fn\	.
.	66e\	.
.	66e-X\	.
.	66d\	.
.	66c#X\	.
.	66cn\	.
.	66Bn\	.
.	66B-X\	.
.	66A\	.
.	66A-X\	.
.	66G\JJJ)	.
*	*Xcue	*
!!LO:LB:g=original
=143	=143	=143
*xywh-#7:306,3015,2381,615	*xywh-#7:306,3015,2381,615	*
.	(8qc#X/	.
*ped	*	*
4.G\ 4.E-X\	4.b-X/ 4.c#y/)	.
*clefG2	*	*
8cc#X/ 8e-X/	8eee-X\ 8gg\	.
4cc#/ 4e-/	4eee-\ 4gg\	.
8.r	8.r	.
*clefF4	*	*
16E-/ 16EE-X/	16ggg\ 16ccc#X\ 16bb-X\ 16gg\	f
=144	=144	=144
2E-X/ 2EE-X/	4ggg\ 4ccc#X\ 4bb-X\ 4gg\	.
*Xped	*	*
.	4r	.
2r	2r	.
!LO:MO:mod=*null:null	!	!
*clefG2	*	*
=145||	=145||	=145||
!LO:MO:null:mod=*clefG2	!LO:MO:null:mod=*clefG2	!
*	*	*
*tremolo	*	*
!	!LO:TX:a:B:t=Moderato maestoso.	!
(32g/LLL 32d/	2dd\	pp
32b-X/	.	.
32g/ 32d/	.	.
32b-/	.	.
32g/ 32d/	.	.
32b-/	.	.
32g/ 32d/	.	.
32b-/	.	.
32g/ 32d/	.	.
32b-/	.	.
32g/ 32d/	.	.
32b-/	.	.
32g/ 32d/	.	.
32b-/	.	.
32g/ 32d/	.	.
32b-/JJJ	.	.
32g/LLL 32e-X/	2cc#X\	.
32b-/	.	.
32g/ 32e-/	.	.
32b-/	.	.
32g/ 32e-/	.	.
32b-/	.	.
32g/ 32e-/	.	.
32b-/	.	.
32g/ 32e-/	.	.
32b-/	.	.
32g/ 32e-/	.	.
32b-/	.	.
32g/ 32e-/	.	.
32b-/	.	.
32g/ 32e-/	.	.
32b-/JJJ	.	.
=146	=146	=146
32g/LLL 32d/	(8dd\L	.
32b-X/	.	.
32g/ 32d/	.	.
32b-/	.	.
32g/ 32d/	8bb-X\	.
32b-/	.	.
32g/ 32d/	.	.
32b-/	.	.
32g/ 32d/	8aa\	.
32b-/	.	.
32g/ 32d/	.	.
32b-/	.	.
32g/ 32d/	8gg\J)	.
32b-/	.	.
32g/ 32d/	.	.
32b-/	.	.
*	*tuplet	*
!	!LO:TUP:a	!
32g/ 32d/	(12ff#\L	.
32b-/	.	.
32g/ 32d/	.	.
.	12aa\	.
32b-/	.	.
32g/ 32d/	.	.
32b-/	.	.
.	12gg\J)	.
32g/ 32d/	.	.
32b-/JJJ)	.	.
*Xtremolo	*	*
!	!LO:TUP:a	!
8g/ 8d/	(12b-X\L	.
.	12cc\	.
8r	.	.
.	12cc#X\J)	.
*clefF4	*	*
=147	=147	=147
!	!LO:TUP:a	!
2B-X\ 2G\ 2D\	(12dd\L	.
.	12g\	.
.	12b-X\J)	.
.	4b-\	.
2c\ 2F#X\ 2D;\	2at;/	.
.	16qqg/LL	.
.	16qqb-/	.
.	16qqa/JJ	.
!!LO:PB:g=original
=148||	=148||	=148||
*k[b-e-]	*k[b-e-]	*
*g:	*g:	*
*M3/4	*M3/4	*
*^	*	*
*xywh-#8:478,545,2353,622	*xywh-#8:478,545,2353,622	*xywh-#8:478,545,2353,622	*
!	!	!LO:TX:a:B:t=Tempo I.	!
(16D/LL	2GG\	16g/	p
16E-/	.	(16c/LL	.
16D/	.	16B-/	.
16C/JJ	.	16A/JJ	.
16D/LL	.	16B-/LL	.
16BB-/	.	16G/	.
16D/	.	16B-/	.
16F/JJ	.	16d/JJ	.
16En/LL	4GG'^\	16c#X/LL	.
16E-X/	.	16cn/	.
16D/	.	16B-/	.
16C/JJ)	.	16A/JJ)	.
=149	=149	=149	=149
(16D/LL	2GG\	(16B-/LL	.
16E-/	.	16c/	.
16D/	.	16B-/	.
16C/JJ	.	16A/JJ	.
16D/LL	.	16B-/LL	.
16BB-/	.	16G/	.
16D/	.	16B-/	.
16F/JJ	.	16d/JJ	.
16En/LL	4GG'^\	16c#X/LL	.
16E-X/	.	16cn/	.
16D/	.	16B-/	.
16C/JJ)	.	16A/JJ)	.
=150	=150	=150	=150
*	*	*^	*
*xywh-#8:478,545,2353,622	*xywh-#8:478,545,2353,622	*xywh-#8:478,545,2353,622	*xywh-#8:478,545,2353,622	*
!	!	!	!	!LO:HP:a
(16D/LL	(4GG^\	2d/	(16B-\LL	<
16BB-/	.	.	16G\	.
16D/	.	.	16B-\	.
16BB-/JJ	.	.	16G\JJ	.
16D/LL	4GG^\	.	16B-\LL	.
16BB-/	.	.	16G\	.
16D/	.	.	16B-\	.
16BB-/JJ	.	.	16G\JJ	.
16D/LL	4GG^\)	4en/	16B-\LL	.
16BB-/	.	.	16G\	.
16D/	.	.	16B-\	.
16BB-/JJ)	.	.	16G\JJ)	[[
*v	*v	*	*	*
=151	=151	=151	=15.
8AA/ 8DD/	2f#X/	8d\ 8A\	[
8r	.	8rc	.
8D/ 8DD/	.	8d\ 8A\ 8F#X\	.
8r	.	8rc	.
4r	4r	4rc	.
!!LO:LB:g=original
=152	=152	=152	=152
*^	*	*	*
*xywh-#8:464,1151,2366,607	*xywh-#8:464,1151,2366,607	*xywh-#8:464,1151,2366,607	*xywh-#8:464,1151,2366,607	*
(16D/LL	(2GG\	2.g/	(16Bn\LL	.
16E-/	.	.	16c\	.
16D/	.	.	16B\	.
16C/JJ	.	.	16A\JJ	.
16D/LL	.	.	16B\LL	.
16BBn/	.	.	16G\	.
16D/	.	.	16B\	.
16F/JJ	.	.	16d\JJ	.
16E-/LL	4C\)	.	16c\LL	.
16F/	.	.	16d\	.
16G/	.	.	16e-\	.
16E-/JJ)	.	.	16c\JJ)	.
=153	=153	=153	=153	=153
16F#X/LL	2D\	[2d/	16A\LL	.
16G/	.	.	16B-X\	.
16F#/	.	.	16A\	.
16En/JJ	.	.	16G\JJ	.
16F#/LL	.	.	16A\LL	.
16G/	.	.	16B-\	.
16A/	.	.	16c\	.
16F#/JJ	.	.	16A\JJ	.
4D/	4GG\	8d/L]	16B-\LL 16G\	.
.	.	.	16c\ 16A\	.
.	.	8d/J	16B-\	.
.	.	.	16B-\JJ 16G\	.
*v	*v	*	*	*
=154	=154	=154	=154
(2C/ 2CC/	(2e-^/	16G\LL	.
.	.	16A\	.
.	.	16G\	.
.	.	16A\JJ	.
.	.	16G\LL	.
.	.	16A\	.
.	.	16G\	.
.	.	16A\JJ	.
4D/ 4DD/)	4d/)	16F#X\LL	.
.	.	16A\	.
.	.	16F#\	.
.	.	16A\JJ	.
*	*v	*v	*
=155	=155	=155
8GG/ 8GGG/	8d/: 8B-/: 8G:/	.
8r	8r	.
8D/ 8GG/	8d/: 8B-/: 8G:/	.
8r	8r	.
4r	(8.d/L	.
.	16dd/Jk)	.
!!LO:LB:g=original
=156	=156	=156
*xywh-#8:462,1769,2386,627	*xywh-#8:462,1769,2386,627	*
4r	(2dd\	.
*clefG2	*	*
(4b-/ 4g/	.	.
4g/ 4e-/)	4cc#X\)	.
=157	=157	=157
*^	*	*
*xywh-#8:462,1769,2386,627	*xywh-#8:462,1769,2386,627	*xywh-#8:462,1769,2386,627	*
2.g/	4.d\	4.dd\ 4.b-\	.
.	(8c\L	(8ee-/L 8e-/	.
.	8B-\	8dd/ 8d/	.
*clefF4	*	*	*
.	8G\J 8E-\)	8g/J 8c/)	.
*v	*v	*	*
=158	=158	=158
(8.D\L	2b-/ 2g/ 2d/ 2B-/	.
16G\Jk)	.	.
[4D\	.	.
4D/] 4DD/	4a/ 4f#X/ 4d/ 4c/	.
=159	=159	=159
*^	*^	*
*xywh-#8:462,1769,2386,627	*xywh-#8:462,1769,2386,627	*xywh-#8:462,1769,2386,627	*xywh-#8:462,1769,2386,627	*
(16D/LL	2GG\	2g/	(16B-\LL	.
16E-/	.	.	16c\	.
16D/	.	.	16B-\	.
16C/JJ	.	.	16A\JJ	.
16D/LL	.	.	16B-\LL	.
16BB-/	.	.	16G\	.
16D/	.	.	16B-\	.
16G/JJ)	.	.	16d\JJ)	.
8D/	4r	8.d/L	8B-\	.
8rF	.	.	8re	.
.	.	16dd/Jk	.	.
*v	*v	*	*	*
=160	=160	=160	=160
4r	(2dd/	4r	.
(4d\ 4B-\ 4G\	.	(4b-\	.
4B-\ 4G-X\)	4cc#X/)	4en\)	.
*	*v	*v	*
=161	=161	=161
*^	*	*
*xywh-#8:462,1769,2386,627	*xywh-#8:462,1769,2386,627	*xywh-#8:462,1769,2386,627	*
4.d/ 4.B-/	2.F\	4.dd/ 4.f/	.
(8e-X/L	.	(8gg/L 8g/	.
8d/	.	8ff/ 8f/	.
8Gn/J)	.	8b-/J 8e-X/)	.
*v	*v	*	*
!!LO:LB:g=original
=162	=162	=162
*xywh-#8:453,2387,2392,587	*xywh-#8:453,2387,2392,587	*
(8.C\L	2dd/ 2b-/ 2en/	.
16G\Jk)	.	.
(4C/	.	.
[4F/ 4FF/)	4cc/ 4a/ 4f/ 4e-X/	.
=163	=163	=163
*^	*^	*
*xywh-#8:453,2387,2392,587	*xywh-#8:453,2387,2392,587	*xywh-#8:453,2387,2392,587	*xywh-#8:453,2387,2392,587	*
16F/LL]	2BB-\	([2b-/	16d\LL	.
16G/	.	.	16e-\	.
16F/	.	.	16d\	.
16E-/JJ	.	.	16c\JJ	.
16F/LL	.	.	16d\LL	.
16D/	.	.	16B-\	.
16F/	.	.	16d\	.
16B-/JJ	.	.	16f\JJ	.
8F/	4r	8b-/L]	8d\	.
8rF	.	16cc/L	8r	.
.	.	16dd/JJ)	.	.
*v	*v	*	*	*
=164	=164	=164	=164
8r	(4ee-'/	8r	.
8A\ 8F\	.	8e-\	.
8r	4ee-'/	8r	.
8B-\L 8G\	.	8e-\L	.
8c\ 8A\	4ee-'/)	8e-\	.
8A\J 8F\	.	8e-\J	.
*	*v	*v	*
=165	=165	=165
8r	(16ee-\LL	.
.	16dd\)	.
.	(8qee-/	.
8B-\ 8F\ 8BB-\	(16dd\)	.
.	16cc#X\JJ)	.
8r	(4.dd\	.
8d\L 8B-\ 8F'\	.	.
8B-\ 8F\ 8D'\	.	.
8F\J 8D\ 8BB-'\	16ee-\LL	.
.	16ff\JJ)	.
=166	=166	=166
8r	(4gg\ 4g'\	.
8A\ 8E-\ 8C\	.	.
8r	4gg\ 4g'\	.
8c\L 8A\ 8E-'\	.	.
8A\ 8E-\ 8C'\	4gg\ 4g'\)	.
8c\J 8A\ 8E-'\	.	.
!!LO:LB:g=original
=167	=167	=167
*xywh-#8:486,2997,2330,598	*xywh-#8:486,2997,2330,598	*
.	(8qg/	.
*	*^	*
*xywh-#8:486,2997,2330,598	*xywh-#8:486,2997,2330,598	*xywh-#8:486,2997,2330,598	*
2Bn\ 2G#X\ 2D\	(16gg\LL)	4rcyy	.
.	16ff\)	.	.
.	(8qgg/	.	.
.	(16ff\)	.	.
.	16een\JJ)	.	.
.	([2ff/	4r	.
4B\ 4G#\ 4D\	.	(16f\LL	.
.	.	16g\	.
.	.	16f\	.
.	.	16g\JJ	.
=168	=168	=168	=168
2c\ 2A\ 2E-\	16ff/LL]	8f\)	.
.	16gg/	.	.
.	16ff/	8r	.
.	16gg/JJ)	.	.
.	([2ff/	4r	.
!	!LO:TX:b:i:t=espress.	!	!
4Bn\ 4G#X\ 4D\	.	(16f\LL	.
.	.	16g\	.
.	.	16f\	.
.	.	16g\JJ	.
=169	=169	=169	=169
2A\ 2E-X\ 2C\	16ff/LL]	8f\)	.
.	16gg/	.	.
.	16ff/	8r	.
.	16gg/JJ)	.	.
.	([2ff/	4r	.
4B-X\ 4D\ 4BB-X\	.	(16f\LL	.
.	.	16g\	.
.	.	16f\	.
.	.	16g\JJ	.
=170	=170	=170	=170
*^	*	*	*
*xywh-#8:486,2997,2330,598	*xywh-#8:486,2997,2330,598	*xywh-#8:486,2997,2330,598	*xywh-#8:486,2997,2330,598	*
4F/	2B-\ 2D\	16ff/LL]	8f\)	.
.	.	16gg/	.	.
.	.	16ff/	8r	.
.	.	16gg/JJ)	.	.
2A-X/	.	2ff/	4r	.
.	4c-X\ 4D-X\	.	(16f\LL	.
.	.	.	16g-X\	.
.	.	.	16f\	.
.	.	.	16a-X\JJ)	.
*	*	*v	*v	*
!!LO:PB:g=original
=171	=171	=171	=171
*xywh-#9:319,479,2393,636	*xywh-#9:319,479,2393,636	*xywh-#9:319,479,2393,636	*
.	.	(8qg-X/	.
!	!	!LO:TUP:a	!
(4B-/	4G-X\	(12gg-X\L)	.
.	.	12aa-X\	.
.	.	12bb-\J)	.
8g-X/L	4r	4bb-\	.
8f/J	.	.	.
!	!	!LO:MO:mod=!LO&colon;TX&colon;a&colon;i&colon;t=rit.	!
!	!	!LO:TX:b:i:t=rit.	!
!	!	!LO:TUP:a	!
4en/)	4r	(12b-\L	.
.	.	12cc\	.
.	.	12cc#X\J)	.
=172	=172	=172	=172
*ped	*	*	*
!LO:TUP:r=8	!	!	!
(24FF/LL	4FF\	2dd/ 2b-/ 2d/	f <
24BB-/	.	.	.
24D/	.	.	.
24F/	.	.	.
24BB-/	.	.	.
24D/JJ)	.	.	.
*Xtuplet	*	*	*
(24FF/LL	4FF\	.	.
24BB-/	.	.	.
24D/	.	.	.
24F/	.	.	.
24BB-/	.	.	.
24D/JJ)	.	.	.
(24FF/LL	4FF\	4een/ 4cc#X/ 4a/ 4en/	.
24BB-/	.	.	.
24C#X/	.	.	.
24G/	.	.	.
24BB-/	.	.	.
*Xped	*	*	*
24C#/JJ)	.	.	.
=173	=173	=173	=173
*ped	*	*	*
!LO:MO:mod=!null:null	!	!	!
!LO:N:vis=2	!	!	!
(24FF/LL	2FF\	4.ff\ 4.dd\ 4.f\	.
24BB-/	.	.	.
24D/	.	.	.
24F/	.	.	.
24BB-/	.	.	.
24D/JJ)	.	.	.
(24BB-/LL	.	.	.
24D/	.	.	.
24F/	.	.	.
24BB-/	.	8gg\ 8ee-X\ 8g\	.
24E-/	.	.	.
24G/JJ)	.	.	.
(24Cn/LL	4FF\	8aa\L 8ff\ 8ee-\ 8a\	.
24E-/	.	.	.
24F/	.	.	.
24BB-/	.	8bb-\J 8gg-X\ 8ee-\ 8b-\	.
24E-/	.	.	.
*Xped	*	*	*
24G-X/JJ)	.	.	[
*v	*v	*	*
!!LO:LB:g=original
=174	=174	=174
*xywh-#9:308,1146,2376,590	*xywh-#9:308,1146,2376,590	*
*tuplet	*	*
*ped	*	*
!LO:TUP:a:r=8	!	!LO:DY:rj
(24C^\LL	2.ggn\ 2.een\ 2.dd\ 2.gn\	fp
24B-\	.	.
24C\	.	.
!LO:TUP:a	!	!
24B-\	.	.
24C\	.	.
[24B-\JJ	.	.
8.B-\] 8.C\)	.	.
16C/ 16CC/	.	.
8C/ 8CC/	.	.
*Xped	*	*
8r	.	.
*Xtuplet	*	*
=175	=175	=175
*ped	*	*
(24F\LL	2.aa\ 2.ff\ 2.ee-X\ 2.a\	.
24c\	.	.
24F\	.	.
24c\	.	.
24F\	.	.
[24c\JJ	.	.
8.c\] 8.F\)	.	.
16FF/ 16FFF/	.	.
8FF/ 8FFF/	.	.
*Xped	*	*
8r	.	.
=176	=176	=176
*ped	*	*
(24G-X^\LL	[2bb-\ [2gg-X\ [2ee-\ [2b-\	.
24e-\	.	.
24G-\	.	.
24e-\	.	.
24G-\	.	.
24e-\JJ	.	.
16B-\)	.	.
16r	.	.
8BB-/ 8BBB-/	.	.
8E-/ 8EE-/	8.bb-\]L 8.gg-\] 8.ee-\] 8.b-\]	.
8r	.	.
.	16gg-X\Jk 16ee-\ 16g-X\	.
=177	=177	=177
(24G-X\LL	2.ccc\ 2.gg-X\ 2.ee-\ 2.cc\	.
24e-\	.	.
24G-\	.	.
24e-\	.	.
24G-\	.	.
24e-\JJ	.	.
16B-\)	.	.
16r	.	.
8E-/ 8EE-/	.	.
8G-/ 8GG-X/	.	.
*Xped	*	*
8r	.	.
!!LO:LB:g=original
=178	=178	=178
*xywh-#9:309,1725,2376,596	*xywh-#9:309,1725,2376,596	*
*ped	*	*
(24A\LL 24F#X\ 24D\	[2ddd\ [2ff#X\ [2dd\	.
24d\	.	.
24A\ 24F#\ 24D\	.	.
24d\	.	.
24A\ 24F#\ 24D\	.	.
24d\JJ	.	.
16A\ 16F#\ 16D\)	.	.
16r	.	.
8AA/ 8AAA/	.	.
8D/ 8DD/	8.ddd\]L 8.ff#\] 8.dd\]	.
8r	.	.
.	16dd\Jk 16a\ 16f#X\	.
=179	=179	=179
(24A\LL 24F#X\ 24D\	2.dd/ 2.a/ 2.f#X/	.
24d\	.	.
24A\ 24F#\ 24D\	.	.
24d\	.	.
24A\ 24F#\ 24D\	.	.
24d\JJ	.	.
16A\ 16F#\ 16D\)	.	.
16r	.	.
8D/ 8DD/	.	.
8d\ 8D\	.	.
*Xped	*	*
8r	.	.
=180	=180	=180
*	*^	*
*xywh-#9:309,1725,2376,596	*xywh-#9:309,1725,2376,596	*xywh-#9:309,1725,2376,596	*
!	!	!	!LO:DY:rj
2.D/ 2.GG/	2.d/	(16B-\LL	pp
.	.	16c\	.
.	.	16B-\	.
.	.	16A\JJ	.
.	.	16B-\LL	.
.	.	16G\	.
.	.	16B-\	.
.	.	16d\JJ	.
.	.	16c#X\LL	.
.	.	16cn\	.
.	.	16B-\	.
.	.	16A\JJ)	.
=181	=181	=181	=181
2.D/ 2.GG/	2.d/	(16B-\LL	.
.	.	16c\	.
.	.	16B-\	.
.	.	16A\JJ	.
.	.	16B-\LL	.
.	.	16G\	.
.	.	16B-\	.
.	.	16d\JJ	.
.	.	16c#X\LL	.
.	.	16cn\	.
.	.	16B-\	.
.	.	16A\JJ)	.
!!LO:LB:g=original
=182	=182	=182	=182
*xywh-#9:295,2307,2404,650	*xywh-#9:295,2307,2404,650	*xywh-#9:295,2307,2404,650	*
4D/ 4GG/	2.d/	(16B-\LL	.
.	.	16G\	.
.	.	16c\	.
.	.	16A\JJ	.
4D/ 4GG/	.	16B-\LL	.
.	.	16G\	.
.	.	16c\	.
.	.	16A\JJ	.
4D/ 4GG/	.	16B-\LL	.
.	.	16G\	.
.	.	16c\	.
.	.	16A\JJ)	.
=183	=183	=183	=183
4D/ 4GG/	2.d/	(16B-\LL	.
.	.	16c\	.
.	.	16B-\	.
.	.	16G\JJ	.
4D/ 4DD/	.	16B-\LL	.
.	.	16c\	.
.	.	16B-\	.
.	.	16G\JJ	.
4BB-/ 4BBB-/	.	16B-\LL	.
.	.	16c\	.
.	.	16B-\	.
.	.	16G\JJ)	.
*	*v	*v	*
=184	=184	=184
*ped	*	*
4GG/ 4GGG/	(16G/LL	pp
.	16A/	.
.	16B-/	.
.	16d/JJ	.
[2d\ [2B-\ [2G\	16g\LL	.
.	16a\	.
.	16b-\	.
.	16dd\JJ	.
.	16gg\LL	.
.	16aa\	.
.	16bb-\	.
.	16ddd\JJ)	.
=185	=185	=185
2d\] 2B-\] 2G\]	(16ggg\LL	.
.	16ddd\	.
.	16bb-\	.
.	16aa\JJ	.
.	16gg\LL	.
.	16dd\	.
.	16b-\	.
.	16a\JJ	.
4r	16g/LL	.
.	16d/	.
.	16B-/	.
.	16A/JJ)	.
!!LO:LB:g=original
=186	=186	=186
*xywh-#9:294,2925,2453,760	*xywh-#9:294,2925,2453,760	*
4GG/ 4GGG/	(16G/LL	.
.	16A/	.
.	16B-/	.
.	16d/JJ	.
[2d\ [2B-\ [2G\	16g\LL	.
.	16a\	.
.	16b-\	.
.	16dd\JJ	.
.	16gg\LL	.
.	16aa\	.
.	16bb-\	.
.	16ddd\JJ)	.
=187	=187	=187
4d\] 4B-\] 4G\]	(16ggg\LL	.
.	16ddd\	.
.	16bb-\	.
.	16aa\JJ	.
*clefG2	*	*
16r	16gg\)	.
(16dd\LL	16r	.
16b-\	8r	.
16a\JJ	.	.
16g/)	16r	.
16r	(16d/LL	.
8r	16B-/	.
.	16A/JJ)	.
*clefF4	*	*
=188	=188	=188
4GG/ 4GGG/	(16G/LL	.
.	16B-/	.
.	16d/	.
.	16g/JJ	.
[2d\ [2B-\ [2G\	16b-\LL	.
.	16dd\	.
.	16gg\	.
.	16bb-\JJ	.
*	*8va	*
.	16ddd\LL	.
.	16ggg\	.
.	16bbb-\	.
.	16dddd\JJ	.
=189	=189	=189
8d\] 8B-\] 8G\]	8gggg\)	.
*Xped	*X8va	*
8r	8r	.
*ped	*	*
4D/ 4DD/	4g/ 4d/ 4B-/	.
4BB-/ 4BBB-/	4g/ 4d/ 4B-/	.
=190	=190	=190
*tremolo	*	*
32GGG/LLL	[2.g/ [>2.d/ [2.B-/	pp
32GG/	.	.
32GGG/	.	.
32GG/	.	.
32GGG/	.	.
32GG/	.	.
32GGG/	.	.
32GG/	.	.
32GGG/	.	.
32GG/	.	.
32GGG/	.	.
32GG/	.	.
32GGG/	.	.
32GG/	.	.
32GGG/	.	.
32GG/	.	.
32GGG/	.	.
32GG/	.	.
32GGG/	.	.
32GG/	.	.
32GGG/	.	.
32GG/	.	.
32GGG/	.	.
[>32GG/JJJ	.	.
=191	=191	=191
4GG/] 4GGG/	4g/] 4d/] 4B-/]	.
*Xped	*	*
!	!LO:TX:b:i:t=Fine.	!
4r	4r	.
4r	4r	.
==	==	==
*-	*-	*-
!!!system-decoration: {(s1,s2)}
!!!RDF**kern: > = above
!!!RDF**kern: < = below
!!!filter-modern: sic -sq | shed -e "s/TUP/tup/L; s/^(X)?tuplet/$1TUPLET/I" | shed -k -e “s/([()[]_])[><]/$1/g” | shed -k -e “s/([^a-gA-Gn#X-])[<>]/$1/g” | shed -e "s/LO:DY:(a|b|rj)/LO:dy:$1/L" | modori -m |
!!!ENC: Mateusz Solarz
!!!END: 2022-05-13
!!!EED: Andrzej Borzym
!!!EEV: 2022-05-22
!!!YEC: Copyright 2022 Narodowy Instytut Fryderyka Chopina (https://polishscores.org)
!!!YEM: License CC-BY-4.0 (https://creativecommons.org/licenses/by/4.0)
!!!IIIF: https://polona.pl/iiif/item/MzkyNzkyNTc/manifest.json
!!!ENC-iiif: Jolanta Bujas-Poniatowska
!!!END-iiif: 2022-08-31
